X:1
T:God Save the Queen
T:God Save the Queen
T:Arranged by Franz Liszt
T:Duex Paraphrases de Concert
C:Arr. for piano by Franz Liszt
%%score { ( 1 2 5 ) | ( 3 4 ) }
L:1/8
Q:1/4=88
M:3/4
K:C
V:1 treble nm="Piano" snm="Pno."
V:2 treble 
V:5 treble 
V:3 bass 
V:4 bass 
V:1
!p!"^Andante quasi fantasia" C2 C2 D2 | B,>C D2 z2 |[K:bass] [D,D]2 [D,D]2 [D,E,^G,B,E]2 | %3
"_cresc." [C,A,C]>[D,D] [E,CE]2 z2 |!mp! B,>C [^G,D]2 x2 | C>D A,2 x2 |!<(! E>D C2 x2!<)! | %7
!f! !fermata![^G,B,E^G]8 | x3[K:treble] e/4^g/4b/4e'/4!8va(!^g'/4b'/4e''/4^g''/4!8va)! !fermata!z | %9
!p! _A2 A2 _B2 | G>_A _B2 z2 | [_B,_B]2 [B,B]2 [=EGc]2 | [_A,F_A]>[_B,G_B] [CAc]2 z2 | %13
"_cresc." [Cc]2 [C=E_Bc]2 [_E_e][_D_d] |!mp! [Cc]2 [Cc]2 [_E_e][_D_d] | %15
!<(! [Cc]2 !>![C_Ac]2 !>![C=DFA=d]2!<)! |!f! !fermata![=EGc=e]8 | %17
 x3 c/4e/4g/4c'/4!8va(!e'/4g'/4c''/4e''/4!8va)! !fermata!z | %18
!p![Q:1/4=96]"^Un poco più mosso" !>![Geg]2 [Geg]2 [Geg]2 | [Geg]7/2 [Fdf]/ [E^ce] z | %20
 !>![_Bg_b]2 [Bgb]2 [Bgb]2 | [_Bg_b]7/2 [Afa]/ [Geg] z | !>![Fdf]2 [Fdf]2 [Fdf]2 | %23
"_cresc." [Fdf]7/2 [Ece]/ [DBd]2 | !>![dfd']2 [dfd']2 [dfd']2 | [d^ed']7/2 [^ce^c']/ [Beb]2 | %26
!f![Q:1/4=102]"^Un poco mosso" z [^C^F^A][DB][CA][B,=G][^A,F] | [^F^A]7/2 [^GB]/ [A^c]2 | %28
 z [^FBd][=Ge][Fd][E^c][DB] | [Bd]7/2 [^ce]/ [d^f]2 | g2!>(! ag^fe | g^fedfe |d!>)!!p!^c=edcB | %33
!f! z [^A^c^a][Bdb][Aca][=GB=g][^FA^f] | [^A^f^a]7/2 [B^gb]/ [^ca^c']2 | %35
 z [d^fd'][ege'][dfd'][^ce^c'][Bdb] | [dbd']7/2 [e^c'e']/ [^fd'^f']2 | %37
 !>![gbd'g']2!<(! [a^c'a'][gbg'][^fd'^f'][ec'e']!<)!!mp! | %38
!f! [gbg'][^fa^f'][e^c'e'][dbd'][f^af'][ec'e'] |!>(! ^f2 ^g2 ^e2!>)! | %40
!mf![Q:1/4=98]"^Slargando" !arpeggio![_B_d_g_b]6 | [_B_d_g_b]4 !arpeggio![B_eg_c']2 | %42
 [=Acf=a]4- (3:2:2[Acfa]2 [_B=g_b] | [cac']2 z2 z2 |[Q:1/4=92] [df_bd']6 | [df_bd']4 f'>e' | %46
[Q:1/4=86] [^cea^c']4- (3:2:2[ceac']2 [d=bd'] | [e^c'e']2 z2 z2 | %48
 [fad'f']4- (3:2:2[fad'f']2 [ge'g'] | [af'a']2 z2 z2 | %50
[Q:1/4=76]"^String." [bd'f'^g'b']2 [bd'f'g'b']2 [bd'f'g'b']2 | %51
 [bd'f'^g'b']7/2 [ad'f'a']/ [^gd'f'g']2 | %52
[Q:1/4=84]"^Più string."!8va(! [d'f'^g'b'd'']2 [d'f'g'b'd'']2 [d'f'g'b'd'']2 | %53
 [d'f'^g'b'd'']3 [c'f'g'c''] [bd'f'g'b']2 | %54
!f! (3:2:2[f'^g'b'f'']2 [e'e''] (3[d'd''][bb'][aa']!8va)! (3[^gg'][ff'][ee'] | %55
 (3[dd'][Bb][Aa] (3[^G^g][Ff][Ee] (3[Dd][B,B][A,A] | %56
 [^G,^G][K:bass][Q:1/4=80]"^Poco rit." !>![F,F]!>![E,E]!>![D,D]!>!B,!>!A, | %57
[K:treble][Q:1/4=92]"^a Tempo" z!>(! [_DF]_GF_ED!>)! |!mp! [_DF]7/2 [_E_G]/ [F_A]2 | %59
 z _Bc[_GB]_AG | [_G_B]7/2 [_Ac]/ [B_d]2 | %61
[Q:1/4=94]"^Accelerando" z"_cresc." [_G_B_e][_Acf][GBe][FA_d][_EGc] | %62
[Q:1/4=100] z [_B_d_g]!f![c_e_a][Bdg][_Acf][_GBe] | %63
!>(! [_df_b][_Bd_g][_Acf]!>)!!mp![_GB_e]!mf!!>(! [Bdg][GBe] | %64
 [F_A_d]!>)!!mp![_E_Gc]!mf!!>(! [G_B_e][EGc][_DFB]!>)!!mp![CE_A] | %65
[Q:1/4=92]"^Rit."!<(! [_B,_D_G][_A,CF][Q:1/4=84][_G,B,_E][F,A,D][Q:1/4=72] !tenuto![_E,G,C]!<)!!ff! [A,_A] | %66
[Q:1/4=88]"^a Tempo" !>![^C=E=A]2 !>![C^FA]2 !>![DFB]2 | !>![B,E^G]7/2 [^FA]/ [GB] z | %68
 !>![=E=G=c]2 !>![EAc]2 !>![FAd]2 | !>![DGB]7/2 [Ac]/ [Bd] z | !>![^GBe]2 !>![G^ce]2 !>![Ac^f]2 | %71
 !>![=c_e_a]2 !>![cfa]2 !>![_df_b]2 | !>![=egc']2 !>![eac']2 !arpeggio!!>![dad']2 | %73
 !wedge![e^ge']/!f! z/4[K:bass]!<(! ^D,,/4E,,/4F,,/4^F,,/4G,,/4(19:16:19^G,,/4A,,/4^A,,/4B,,/4C,/4^C,/4D,/4^D,/4E,/4F,/4^F,/4G,/4^G,/4A,/4^A,/4B,/4C/4^C/4!<)!!ff!D/4 | %74
[K:treble] z/4!f! E/4!<(!F/4^F/4G/4^G/4A/4^A/4(21:16:21B/4c/4^c/4d/4^d/4e/4f/4^f/4g/4^g/4a/4^a/4b/4c'/4^c'/4d'/4^d'/4e'/4f'/4^f'/4!<)!!ff!g'/4 | %75
 [ge'g']/ z/4[K:bass]!f! ^D,,/4!<(!(6:4:6E,,/4F,,/4^F,,/4G,,/4^G,,/4A,,/4(20:16:20^A,,/4B,,/4C,/4^C,/4D,/4^D,/4E,/4F,/4^F,/4G,/4^G,/4A,/4^A,/4B,/4C/4[K:treble]^C/4D/4^D/4E/4F/4 | %76
 (9:8:9z/4 G/4^G/4A/4^A/4B/4c/4^c/4d/4(20:16:20^d/4e/4f/4^f/4g/4^g/4a/4^a/4b/4c'/4^c'/4d'/4^d'/4e'/4f'/4^f'/4g'/4^g'/4a'/4!<)!!ff!^a'/4 | %77
!mf!!8va(! [^g'b']/4[be']/4[g'b']/4[be']/4[g'b']/4[be']/4[g'b']/4[be']/4 [g'b']/4[be']/4[g'b']/4[be']/4[g'b']/4[be']/4[g'b']/4[be']/4 [g'b']/4[be']/4[g'b']/4[be']/4[g'b']/4[be']/4[g'b']/4[be']/4 | %78
!ff! x3!8va)! z/ !^![CFAc]/ !^![DFAB] z | %79
!mf!!8va(! [^g'b']/4[be']/4[g'b']/4[be']/4[g'b']/4[be']/4[g'b']/4[be']/4 [g'b']/4[be']/4[g'b']/4[be']/4[g'b']/4[be']/4[g'b']/4[be']/4 [g'b']/4[be']/4[g'b']/4[be']/4[g'b']/4[be']/4[g'b']/4[be']/4 | %80
!ff! x3!8va)! z/ !^![FAce]/ !^![FABd] z | %81
[K:bass][I:staff +1] (11:8:11G,,,/4G,,/4[I:staff -1]B,,/4[D,F,]/4A,/4[K:treble][I:staff +1]B,/4[DF]/4A/4[I:staff -1]f/4b/4d'/4 f' [A,C_EA][Ac_ea][ac'_e'a'] | %82
[K:bass][I:staff +1] (10:8:10G,,,/4G,,/4[I:staff -1]^C,/4[E,A,]/4[I:staff +1]^C/4[EG]/4A/4[I:staff -1][K:treble]e/4a/4^c'/4 !wedge!a' [A,DFA][Adfa][ad'f'a'] | %83
[Q:1/4=70]"^Rit." [_B,DF_B][Bdf_b][Q:1/4=62][bd'f'_b'] [=B,DF=B][Q:1/4=54][Bdf=b]!fermata![bd'f'=b'] | %84
 !fermata!z6 ||[M:3/4][K:bass]!pp![Q:1/4=60]"^Andante grave" [C,C]2 [C,C]2 [D,D]2 | %86
 [B,,B,]3 [C,C] [D,D]2 | [E,E]2 [E,E]2 [F,F]2 | [E,E]3 [D,D] [C,C]2 | [D,D]2 [C,C]2 [B,,B,]2 | %90
 !fermata![C,C]6 || %91
[Q:1/4=72]"^a Tempo"!mp! !>![C,C]2[K:treble]!8va(![K:bass] !>![C,C]2!8va)![K:treble]!8va(![K:bass] !>![D,D]2!8va)![K:treble] | %92
[K:bass] !>![B,,B,]2[K:treble]!8va(![K:bass] !>![C,C]2!8va)![K:treble]!8va(![K:bass] !>![D,D]2!8va)![K:treble] | %93
[K:bass] !>![E,E]2[K:treble]!8va(![K:bass] !>![E,E]2!8va)![K:treble]!8va(![K:bass] !>![F,F]2!8va)![K:treble] | %94
[K:bass] !>![E,E]2[K:treble]!8va(![K:bass] !>![D,D]2!8va)![K:treble]!8va(![K:bass] !>![C,C]2!8va)![K:treble] | %95
[K:bass] !>![D,D]2[K:treble]!8va(![K:bass] !>![C,C]2!8va)![K:treble]!8va(![K:bass] !>![B,,B,]2!8va)![K:treble] | %96
[K:bass] !>![C,C]2[K:treble]!8va(! z2!8va)! z2 |!p! !>!C2!8va(! !>!C2!8va)!!8va(! !>!D2!8va)! | %98
 !>!B,2!8va(! !>!C2!8va)!!8va(! !>!D2!8va)! |!<(! !>!E2!8va(! !>!E2!8va)!!8va(! !>!F2!8va)!!<)! | %100
 !>!E2!8va(! !>!D2!8va)!!8va(! !>!C2!8va)! | %101
[K:treble]!>(! !>!_D2!8va(! !>!C2!8va)!!8va(!!>)!!ppp! !>!B,2!8va)! | %102
 !>!C2!8va(! z!8va)! [Gg]/4[Aa]/4[Bb]/4!<(![cc']/4[dd']/4[ee']/4[ff']/4[gg']/4!8va(!(6:4:6[aa']/4[bb']/4[c'c'']/4[d'd'']/4[e'e'']/4[f'f'']/4!<)!!8va)! | %103
!fff!!8va(! !wedge![g'c''e''g'']/!8va)!z/4[Gceg]/4!>![Gceg] !wedge![g_b_e'g']/z/4[G_B_eg]/4!>![GBeg] !wedge![gbe'g']/z/4[GBdg]/4!>![GBdg] | %104
 !^![GA^ceg]3 !^![FAdf] !^![EAce]2 | %105
!8va(! !wedge![f'_b'd''f'']/!8va)!z/4[F_Bdf]/4!>![FBdf] !wedge![fa^c'f']/z/4[FA^cf]/4!>![FAcf] !wedge![f_a=c'f']/z/4[F_A=cf]/4!>![FAcf] | %106
 !^![FGBdf]3 !^![EGce] !^![DGBd]2 | !>![c'e']2 !>![af']!>![ge']!>![fd']!>![ec'] | %108
 !>![c'e']3 !>![c'f'] !>![c'g']2 | !>![ac'a']!>![fad'f'] !^![ea^c'e']2!fff! !^![e^gbe']2 | %110
[M:4/4] !^![ea^c'e']4 x4 |[M:3/4] !>![ad'f'a']!>![fad'f'] !^![egc'e']2!ff! !^![dfbd']2 | %112
[M:2/4][Q:1/4=132]"^Allegro con brio"!f! !wedge![cec'] !wedge!C!wedge!G!wedge!E | %113
 !>!c.B/.A/.G/.F/.E/.D/ | !wedge![ec'e']!f! !wedge![CE]!wedge![Gc]!wedge![EG] | %115
 !>![ce].[Bd]/.[Ac]/.[GB]/.[FA]/.[EG]/.[DF]/ | %116
 !wedge![ge'g']!f! !wedge![CEG]!wedge![Gce]!wedge![EGc] | %117
 !>![eg].[df]/.[ce]/.[Bd]/.[Ac]/.[GB]/.[FA]/ | %118
 !>![cec'].[Bdb]/.[Aca]/.[GBg]/.[FAf]/.[EGe]/.[DFd]/ | %119
 !>![ec'e'].[dbd']/.[cac']/.[Bgb]/.[Afa]/.[Geg]/.[Fdf]/ | %120
[Q:1/4=132]"^String." !^![e'c''e''][d'b'd'']/[c'a'c'']/[bg'b']/[Q:1/4=110][af'a']/[ge'g']/[fd'f']/ | %121
[ec'e']/[dbd']/[cac']/[Q:1/4=102][dbd']/[ec'e']/[fd'f']/[ge'g']/[af'a']/ | %122
 [bg'b']/[c'a'c'']/[d'b'd'']/[Q:1/4=96][e'c''e'']/[d'b'd'']/[c'a'c'']/[bg'b']/[af'a']/ | %123
[ge'g']/[fd'f']/[ec'e']/[Q:1/4=88][dbd']/[cac']/[dbd']/[ec'e']/[fd'f']/ | %124
[Q:1/4=80][ge'g']/[af'a']/[bg'b']/[c'a'c'']/[Q:1/4=60](3[d'b'd''][e'c''e'']!fermata![f'd''f''] | %125
[M:3/8]!8va(! !wedge![g'e''g''] !wedge![g'e''g''] !wedge![g'e''g''] | %126
 !>![g'e''g'']>[f'd''f''][e'^c''e''] | !wedge![f'd''f''] !wedge![f'd''f''] !wedge![f'd''f''] | %128
 [f'd''f'']>[e'e''][d'd'']!8va)! |[K:bass] !^![^F,B,^D][^G,B,E]/[F,B,D]/[E,G,^C]/[^D,F,B,]/ | %130
 !>![^D,B,^D]>[E,^CE][^F,D^F] |[K:treble] !>![G,B,E=G]>[A,^FA][B,GB] |[M:1/4] [CGc]>[DGd] | %133
 !wedge![EGe]2 | [Fcf]>[Gcg] | !wedge![Aca]2 | !wedge![DGcd]2 | z2 | !wedge![GBdg]2 | z2 | %140
[M:3/4][Q:1/4=72]"^Tempo I" !>![Cc]2!8va(! !>![Cc]2!8va)!!8va(! !>![Dd]2!8va)! | %141
 !>![Cc]2!8va(! !>![Cc]2!8va)!!8va(! !>![Dd]2!8va)! | %142
 !>![Cc]2!8va(! !>![Ee]2!8va)!!8va(! !>![Gg]2!8va)!!8va(! |!f![Q:1/4=88] !///-![g'c'']3 [e''g'']3 | %144
 !///-![g'c'']3 [e''g'']3 | %145
!ff! !wedge![g'c''e''g'']2 !wedge![g'c''e''g'']2 !wedge![g'c''e''g'']2!8va)! | %146
!8vb(! !>!!fermata![C,C]6!8vb)! |] %147
V:2
 C2 C2 C2 | B,2 B,2 x2 |[K:bass] x6 | x6 | [E,E]2 [E,E]2 [F,F]2 | [E,E]2 [E,E]2 [F,F]2 | %6
 E,2 !>![E,E]2 !>![^F,CE^F]2 | x8 | x3[K:treble] x!8va(! x!8va)! x | _A2 A2 A2 | G2 G2 x2 | x6 | %12
 x6 | G>_A x4 | _A>_B x4 | c>_B x4 | x8 | x4!8va(! x!8va)! x | x6 | x6 | x6 | x6 | x6 | x6 | x6 | %25
 x6 | x x ^F2 x2 | x6 | x6 | z [^F,D][G,E][F,D] z2 | [Bd]2 [A^c]2 [Ac]2 | [GB]2 [GB]2 [^F^A]2 | %32
 [^FB]2 [^GB]2 [^EG]2 | x6 | x6 | x6 | x6 | x6 | x6 | [dd'][^c^c'] [=e=e'][dd'][cc'][Bb] | x6 | %41
 x6 | x6 | x6 | x6 | x2 (7:4:6d' d'/e'/d'/^c'/d'/ [de_b]2 | x6 | x6 | x6 | x6 | x6 | x6 | %52
!8va(! x6 | x6 | x4!8va)! x2 | x6 | x[K:bass] x5 |[K:treble] _A,2 [_B,_D]A,[_G,B,][F,A,] | x6 | %59
 x _D_ED[CE][_B,D] | [_D_E_G]4 x2 | x6 | x6 | x6 | x6 | x6 | %66
 =A,/^G,/^F,/E,/ A,/G,/F,/^E,/ B,/A,/G,/F,/ | ^G,/^F,/E,/^D,/ E,/F,/G,/A,/ B,/^C/^D/E/ | %68
 =C/B,/A,/G,/ C/B,/A,/^G,/ D/C/B,/A,/ | B,/A,/=G,/^F,/ G,/A,/B,/C/ D/E/^F/G/ | %70
 E/^D/^C/B,/ E/D/C/^B,/ ^F/E/D/C/ | _A/G/=F/_E/ A/G/F/E/ _B/A/G/F/ | c/=B/=A/G/ c/B/A/G/ F/A/G/F/ | %73
 x3/4[K:bass] x5 |[K:treble] x241/40 | x3/4[K:bass] x17/4[K:treble] x | x6 |!8va(! x6 | %78
 !^![d'b'd'']/4a'/4f'/4d'/4!8va)!b/4a/4f/4d/4B/4A/4F/4D/4[I:staff +1](3B,/A,/F,/D,/4B,,/4A,,/4F,,/4D,, | %79
!8va(! x6 | %80
[I:staff -1] !^![f'd''f'']/4b'/4a'/4f'/4!8va)!d'/4b/4a/4f/4d/4B/4A/4F/4[I:staff +1](3D/B,/A,/F,/4D,/4B,,/4A,,/4F,,/4D,,/4B,,,/4A,,,/4 | %81
[I:staff -1][K:bass] x11/12[K:treble] x51/10 |[K:bass] x7/5[K:treble] x23/5 | x6 | x6 || %85
[M:3/4][K:bass] x6 | x6 | x6 | x6 | x6 | x6 || %91
 x[K:treble]!8va(! !arpeggio![c'e'g'c''][K:bass]!8va)! x[K:treble]!8va(! !arpeggio![c'e'g'c''][K:bass]!8va)! x[K:treble]!8va(! !arpeggio![d'f'a'd'']!8va)! | %92
[K:bass] x[K:treble]!8va(! !arpeggio![bd'g'b'][K:bass]!8va)! x[K:treble]!8va(! !arpeggio![c'e'g'c''][K:bass]!8va)! x[K:treble]!8va(! !arpeggio![d'g'b'd'']!8va)! | %93
[K:bass] x[K:treble]!8va(! !arpeggio![e'g'c''e''][K:bass]!8va)! x[K:treble]!8va(! !arpeggio![e'a'c''e''][K:bass]!8va)! x[K:treble]!8va(! !arpeggio![f'a'd''f'']!8va)! | %94
[K:bass] x[K:treble]!8va(! !arpeggio![e'g'c''e''][K:bass]!8va)! x[K:treble]!8va(! !arpeggio![d'f'b'd''][K:bass]!8va)! x[K:treble]!8va(! !arpeggio![c'e'g'c'']!8va)! | %95
[K:bass] x[K:treble]!8va(! !arpeggio![d'f'a'd''][K:bass]!8va)! x[K:treble]!8va(! !arpeggio![c'e'g'c''][K:bass]!8va)! x[K:treble]!8va(! !arpeggio![bd'f'g'b']!8va)! | %96
[K:bass] x[K:treble]!8va(! !arpeggio![c'e'g'c'']!8va)! x2 x2 | %97
 x!8va(! !arpeggio![c'e'g'c'']!8va)! x!8va(! !arpeggio![c'_e'_a'c'']!8va)! x!8va(! !arpeggio![d'^f'=a'd'']!8va)! | %98
 x!8va(! !arpeggio![bd'g'b']!8va)! x!8va(! !arpeggio![c'e'g'c'']!8va)! x!8va(! !arpeggio![d'f'b'd'']!8va)! | %99
 x!8va(! !arpeggio![e'^g'b'e'']!8va)! x!8va(! !arpeggio![e'a'^c''e'']!8va)! x!mf!!8va(! !arpeggio![f'a'd''f'']!8va)! | %100
 x!8va(! !arpeggio![e'g'c''e'']!8va)! x!8va(! !arpeggio![d'f'b'd'']!8va)! x!p!!8va(! !arpeggio![c'_e'_a'c'']!8va)! | %101
[K:treble] x!8va(! !arpeggio![_d'f'_a'_d'']!8va)! x!8va(! !arpeggio![c'e'g'c'']!8va)! x!8va(! !arpeggio![bd'g'b']!8va)! | %102
 x!8va(! !arpeggio![c'e'g'c'']!8va)! x x x2 |!8va(! x/!8va)! x11/2 | x6 |!8va(! x/!8va)! x11/2 | %106
 x6 | [eg]/z/4[EG]/4[EGc]/[EGe]/ f/[FA]/e/[EG]/ d/[DF]/c/[CE]/ | %108
 e/z/4E/4[Ec]/[ce]/ [ec']/[c'e']/ f/[Gc]/ g/[Gc]/[Gcg]/[Gc]/ | %109
 x2 z/!f! [EA]/[EA^ce]/[EA]/ z/!f! [E^G]/[EGBe]/[EG]/ | %110
[M:4/4] z/!mp!!<(! [A,^CEA]/[CEA^c]/[EAce]/ [Acea]/[CEAc]/[EAce]/[Acea]/ [cea^c']/[EAce]/[Acea]/[ceac']/!<)!!ff! [eac'e']/[ac'e'a']/[c'e'a'^c'']/[ac'e'a']/4 !fermata!z/4 | %111
[M:3/4] x2 z/!f! [EG]/[EGce]/[EG]/ z/!f! [DF]/[DFBd]/[DF]/ |[M:2/4] x4 | x4 | x4 | x4 | x4 | x4 | %118
 x4 | x4 | x4 | x4 | x4 | x4 | x4 |[M:3/8]!8va(! x3 | x3 | x3 | x3!8va)! |[K:bass] x3 | x3 | %131
[K:treble] x3 |[M:1/4] x2 | x2 | x2 | x2 | x2 | x2 | x2 | x2 | %140
[M:3/4] (6:4:6C/[EG]/c/[egc']/!8va(!c'/[e'g'c'']/!8va)! (6:4:6C/[_E_A]/c/[_e_ac']/!8va(!c'/[_e'_a'c'']/!8va)! (6:4:6C/[F=A]/d/[f=ad']/!8va(!d'/[f'=a'd'']/!8va)! | %141
 (6:4:6C/[EG]/c/[egc']/!8va(!c'/[e'g'c'']/!8va)! (6:4:6C/[_E_A]/c/[_e_ac']/!8va(!c'/[_e'_a'c'']/!8va)! (6:4:6C/[F=A]/d/[f=ad']/!8va(!d'/[f'=a'd'']/!8va)! | %142
 (6:4:6C/[EG]/c/[egc']/!8va(!c'/[e'g'c'']/!8va)! (6:4:6E/[Gc]/e/[gc'e']/!8va(!e'/[g'c''e'']/!8va)! (6:4:6G/[ce]/g/[c'e'g']/!8va(!g'/[c''e''g'']/ | %143
 x6 | x6 | x6!8va)! |!8vb(! x6!8vb)! |] %147
V:3
 z6 | G,2 G,2 A,2 | F,>G, A,2 z2 | %3
 !arpeggio![A,,,C,,E,,A,,]2 !arpeggio![A,,,C,,E,,A,,]2 !arpeggio![A,,,D,,F,,B,,]2 | %4
 [^G,,,^G,,]>[A,,,A,,] [B,,,E,,B,,]2 z2 | [A,,,A,,]>[B,,,B,,] [C,,E,,C,]2 z2 | %6
 [C,,C,]>[B,,,B,,] !>![A,,,E,,A,,]2 !>![E,,,A,,,C,,E,,]2 |!mf!!ped! !///-!!fermata!E,,,4 E,,4 | %8
!f! E,,,/4^G,,,/4C,,/4E,,/4 ^G,,/4B,,/4E,/4^G,/4 B,/4E/4^G/4B/4 z !fermata!z2!ped-up! | z6 | %10
[K:treble] _E2 E2 F2 | _D>_E F2 z2 |[K:bass] [F,,C,F,]2 [F,,C,F,]2 _A,G, | C,2 x4 | C,2 x2 z2 | %15
 C,2 x2 !>![C,,_A,,F,]2 |!f!!ped! !///-!!fermata!C,,4 C,4 | %17
!8vb(! !^!C,,,/4E,,,/4G,,,/4C,,/4!8vb)! E,,/4G,,/4C,/4E,/4 G,/4C/4E/4G/4 z !fermata!z2!ped-up! | %18
 z2 z!mp!!ped! _B,,, z [_B,,^C,] |!p! z [^C,_B,][B,^C][C_B] z2!ped-up! | %20
 z2 z!mp!!ped! A,,, z [A,,^C,] | z!p! [^C,A,] [A,^C][CA] z2!ped-up! | %22
 z2 z!ped! _A,,, z [_A,,=B,,] | z [=B,,_A,][A,B,][B,_A] z2!ped-up! | z2 z!ped! G,,, z [G,,B,,F,] | %25
 z [D,^E,B,][E,B,D][D^EB]!ped-up! z2 |{/!>!x} ^F,2{/!>!^F,,} F,2{/!>!F,,} F,2 | %27
 z [^C,^A,] [D,B,][C,A,][B,,=G,][^A,,^F,] |{/!>!^F,,} ^F,2{/!>!F,,} F,2{/!>!F,,} F,2 | %29
 z x x2 [E,^C][D,B,] | z E,,A,,^C,D,^F, | G,B,^CE^F^A, | B,^F, z B,^CD | %33
!ped!{/^F,,^F,} !>!^F2 !>![F,F]2 !>![F,F]2 | z [^C,^A,][D,B,][C,A,][B,,=G,][^A,,^F,]!ped-up! | %35
!ped!{/^F,,^F,} !>!^F2 !>![F,F]2 !>![F,F]2 | z [^F,D][G,E][F,D]!arpeggio![E,^C][D,B,]!ped-up! | %37
 z [E,,G,,E,][A,,^C,A,][C,E,^C][D,^F,D][F,A,^F] | %38
 [G,B,G][B,,D,B,][^C,E,^C][E,,G,,E,][^F,,^A,,^F,][^A,,,F,,A,,] | %39
 !arpeggio!!>![G,,,^F,,B,,]2 !arpeggio!!>![^E,,,B,,]2 !arpeggio!!>![^C,,^G,,^C,]2 | %40
!ped! (3_G,,,_G,,_D, (3_G,_B,_D (3_B_GD!ped-up! | %41
!ped! (3_E,,,_E,,_B,, (3_E,_G,_B, (3_G_EB,!ped-up! |!ped! (3F,,,F,,=A,, (3C,F,A, (3CFG | %43
 (3AFC (3A,F,C, (3F,C,F,,!ped-up! |!ped! (3_B,,,_B,,F, (3_B,DF[K:treble] (3d_BF!ped-up! | %45
[K:bass]!ped! (3G,,,G,,D, (3G,_B,D[K:treble] (3_BED!ped-up! | %46
[K:bass]!ped! (3A,,,A,,^C, (3E,A,^C[K:treble] (3EA=B | (3^cAE[K:bass] (3^CA,E, (3A,E,A,,!ped-up! | %48
!ped! (3A,,,A,,F, (3A,DF[K:treble] (3Ade | (3fdA (3FDA,[K:bass] (3DA,F,!ped-up! | %50
!ped! (3A,,,A,,D, (3F,^G,B,[K:treble] (3DF^G | (3B^GF[K:bass] (3DB,^G, (3F,D,B,,!ped-up! | %52
!ped! (3A,,,A,,F, (3^G,B,D[K:treble] (3F^GB | (3dB^G (3FDB,[K:bass] (3^G,F,D,!ped-up! | %54
 (3[A,,,A,,][K:treble] [Ff][Ee] (3[Dd][B,B][A,A][K:bass] (3[^G,^G][F,F][E,E] | %55
 (3[D,D][B,,B,][A,,A,] (3[^G,,^G,][F,,F,][E,,E,] (3[D,,D,][B,,,B,,][A,,,A,,] | %56
 [^G,,,^G,,] !>![F,,,F,,]!>![E,,,E,,]!>![D,,,D,,]!>![B,,,B,,]!>![A,,,A,,] | [_A,,,_A,,]6- | %58
 z [F,_A,][_G,_B,][F,A,][_E,G,][_D,F,] | [_A,,,_A,,]6- | z [_G,_B,][_A,C][G,B,][F,A,][_E,G,] | %61
 z [_G,_B,_E][_A,CF][G,B,E][F,A,_D][_E,G,C] | z [_B,_D_G][C_E_A][B,DG][_A,CF][_G,B,E] | %63
 [_DF_B][_B,D_G][_A,CF][_G,B,_E] [B,DG][G,B,E] | %64
 [F,_A,_D][_E,_G,C][G,_B,_E][E,G,C][_D,F,B,][C,E,_A,] | %65
 [_B,,_D,_G,][_A,,C,F,][_G,,B,,_E,][F,,A,,D,] [_E,,G,,C,]!ped! !^![_A,,,A,,]!ped-up! | %66
!ff!!ped! =A,,/^G,,/^F,,/!ped-up!E,,/!ped! A,,/G,,/F,,/!ped-up!^E,,/!ped! B,,/A,,/G,,/!ped-up!F,,/ | %67
!ped! ^G,,/^F,,/E,,/^D,,/ E,,/F,,/G,,/!ped-up!A,,/!ped! B,,/^C,/^D,/!ped-up!E,/ | %68
!ped! =C,/B,,/A,,/!ped-up!G,,/!ped! C,/B,,/A,,/!ped-up!^G,,/!ped! D,/C,/B,,/!ped-up!A,,/ | %69
!ped! B,,/A,,/=G,,/^F,,/ G,,/A,,/B,,/!ped-up!C,/!ped! D,/E,/^F,/!ped-up!G,/ | %70
!ped! E,/^D,/^C,/!ped-up!B,,/!ped! E,/D,/C,/!ped-up!^B,,/!ped! ^F,/E,/D,/!ped-up!C,/ | %71
!ped! _A,/G,/=F,/!ped-up!_E,/!ped! A,/G,/F,/!ped-up!E,/!ped! _B,/A,/G,/!ped-up!F,/ | %72
!ped! C/=B,/=A,/!ped-up!G,/!ped! C/B,/A,/!ped-up!G,/!ped! F,/A,/G,/!ped-up!F,/ | %73
!ped! [E,,B,,E,]!ped-up! z!ff! !>![^G,B,E]2 !>![A,^C^F]2 | !^![^F,A,^D]3 [^G,B,E] [A,CD^F]2 | %75
!ped! [E,,B,,E,]!ped-up! z[K:treble] !>![B,E^G]2 !>![=C=FA]2 | %76
 !^![A,C^D^F]3 !>![B,E^G] !>![CDFA]2 | %77
[K:bass]!ff!!ped! !>![B,E^GB]2 !>![B,EGB]2 !>![B,EGB]2!ped-up! | %78
[K:treble]!ped! !^![DFGBd]2 x[K:bass] x x x!ped-up! | %79
!ff!!ped! !>![B,E^GB]2 !>![B,EGB]2 !>![B,EGB]2!ped-up! | %80
[K:treble]!ped! !^![FABdf]2 x[K:bass] x x x!ped-up! | %81
!ped! x/ x/4[K:treble] x/4 x[K:bass] z!ped-up!!ped! [G,,C,_E,^F,][G,C_E^F][K:treble][Gc_e^f]!ped-up! | %82
[K:bass]!ped! x/ x/4[K:treble] x/ x/4 z/[K:bass] z!ped-up!!ped! [G,,D,F,][G,DF][K:treble][Gdf]!ped-up! | %83
[K:bass]!ped! [G,,_B,,D,F,G,][G,_B,DFG][K:treble][G_Bdfg]!ped-up![K:bass]!ped! [G,,=B,,D,F,G,][G,=B,DFG][K:treble][G=Bdfg]!ped-up! | %84
 !fermata!z6 ||[M:3/4][K:bass] [C,,,C,,]2 [C,,,C,,]2 [D,,,D,,]2 | %86
 [B,,,,B,,,]3 [C,,,C,,] [D,,,D,,]2 | [E,,,E,,]2 [E,,,E,,]2 [F,,,F,,]2 | %88
 [E,,,E,,]3 [D,,,D,,] [C,,,C,,]2 | [D,,,D,,]2 [C,,,C,,]2 [B,,,,B,,,]2 | !fermata![C,,,C,,]6 || %91
"_pédale sur chaque temps de la mesure"!ped![I:staff -1] (3C,3/4[E,G,]/4[I:staff +1][K:treble]!arpeggio![CEGc]/ z!ped-up![K:bass]!ped![I:staff -1] (3C,3/4[E,A,]/4[I:staff +1][K:treble]!arpeggio![CEAc]/ z!ped-up![K:bass]!ped![I:staff -1] (3D,3/4[F,A,]/4[I:staff +1][K:treble]!arpeggio![DFAd]/ z!ped-up! | %92
[K:bass]!ped![I:staff -1] (3B,,3/4[D,G,]/4[I:staff +1][K:treble]!arpeggio![B,DGB]/ z!ped-up![K:bass]!ped![I:staff -1] (3C,3/4[E,G,]/4[I:staff +1][K:treble]!arpeggio![CEGc]/ z!ped-up![K:bass]!ped![I:staff -1] (3D,3/4[G,B,]/4[I:staff +1][K:treble]!arpeggio![DGBd]/ z!ped-up! | %93
[K:bass]!ped![I:staff -1] (3E,3/4[G,C]/4[I:staff +1][K:treble]!arpeggio![EGce]/ z!ped-up![K:bass]!ped![I:staff -1] (3E,3/4[A,C]/4[I:staff +1][K:treble]!arpeggio![EAce]/ z!ped-up![K:bass]!ped![I:staff -1] (3F,3/4[A,D]/4[I:staff +1][K:treble]!arpeggio![FAdf]/ z!ped-up! | %94
[K:bass]!ped![I:staff -1] (3E,3/4[G,C]/4[I:staff +1][K:treble]!arpeggio![EGce]/ z!ped-up![K:bass]!ped![I:staff -1] (3D,3/4[F,B,]/4[I:staff +1][K:treble]!arpeggio![DFBd]/ z!ped-up![K:bass]!ped![I:staff -1] (3C,3/4[E,A,]/4[I:staff +1][K:treble]!arpeggio![CEAc]/ z!ped-up! | %95
[K:bass]!ped![I:staff -1] (3D,3/4[F,A,]/4[I:staff +1][K:treble]!arpeggio![DFAd]/ z!ped-up![K:bass]!ped![I:staff -1] (3C,3/4[E,G,]/4[I:staff +1][K:treble]!arpeggio![CEGc]/ z!ped-up![K:bass]!ped![I:staff -1] (3B,,3/4[D,G,]/4[I:staff +1][K:treble]!arpeggio![B,DFGB]/ z!ped-up! | %96
[K:bass]!ped![I:staff -1] (3C,3/4[E,G,]/4[I:staff +1][K:treble]!arpeggio![CEGc]/ z!ped-up! z[K:bass]!ped! (5:4:4.[A,A]/ .[G,G]/4.[F,F]/4.[E,E]/4!ped-up!!ped! .[D,D]/4.[C,C]/4.[B,,B,]/4.[A,,A,]/4.[G,,G,]/4.[F,,F,]/4.[E,,E,]/4.[D,,D,]/4!ped-up! | %97
!ped! (8:4:8C,/4E,/4G,/4[I:staff -1]E/4G/4c/4[I:staff +1][K:treble]e/4g/4 z!ped-up![K:bass]!ped! (8:4:8_A,,/4C,/4_A,/4[I:staff -1]_E/4_A/4c/4[I:staff +1][K:treble]_e/4_a/4 z!ped-up![K:bass]!ped! (8:4:8D,,/4=A,,/4^F,/4[I:staff -1]^F/4=A/4d/4[I:staff +1][K:treble]^f/4=a/4 z!ped-up! | %98
[K:bass]!ped! (8:4:8G,,/4D,/4A,/4[I:staff -1]D/4G/4B/4[I:staff +1][K:treble]d/4g/4 z!ped-up![K:bass]!ped! (8:4:8G,,/4E,/4G,/4[I:staff -1]E/4G/4c/4[I:staff +1][K:treble]e/4g/4 z!ped-up![K:bass]!ped! (8:4:8G,,/4F,/4B,/4[I:staff -1]F/4B/4d/4[I:staff +1][K:treble]f/4b/4 z!ped-up! | %99
[K:bass]!ped! (8:4:8E,,/4^G,/4B,/4[I:staff -1]^G/4B/4e/4[I:staff +1][K:treble]^g/4b/4 z!ped-up![K:bass]!ped! (8:4:8A,,/4E,/4^C/4[I:staff -1]A/4^c/4e/4[I:staff +1][K:treble]a/4^c'/4 z!ped-up![K:bass]!ped! (8:4:8D,/4A,/4D/4[I:staff -1]A/4d/4f/4[I:staff +1][K:treble]a/4d'/4 z!ped-up! | %100
[K:bass]!ped! (8:4:8G,,/4E,/4!>(!C/4[I:staff -1]G/4c/4e/4[I:staff +1][K:treble]g/4c'/4 z!ped-up![K:bass]!ped! (8:4:8_A,,/4F,/4B,/4[I:staff -1]F/4B/4d/4[I:staff +1][K:treble]f/4b/4 z!ped-up![K:bass]!ped! (8:4:8_G,,/4_E,/4_A,/4[I:staff -1]_E/4_A/4c/4[I:staff +1][K:treble]_e/4_a/4!>)! z!ped-up! | %101
[K:bass]!ped! (8:4:8F,,/4F,/4_A,/4[I:staff -1]F/4_A/4_d/4[I:staff +1][K:treble]f/4_a/4 z!ped-up![K:bass]!ped! (8:4:8G,,/4E,/4G,/4[I:staff -1]E/4G/4B/4[I:staff +1][K:treble]e/4g/4 z!ped-up![K:bass]!ped! (10:4:10G,,/4_D,/4F,/4G,/4[I:staff -1]_D/4G/4B/4[I:staff +1][K:treble]d/4f/4g/4 z!ped-up! | %102
[K:bass]!ped! (8:4:8C,,/4G,,/4E,/4[I:staff -1]E/4G/4c/4[I:staff +1][K:treble]e/4f/4 z!ped-up! z!ped! z3/4[K:bass] [G,G]/4[F,F]/4[E,E]/4[D,D]/4[C,C]/4!ped-up!!ped!(6:4:6[B,,B,]/4[A,,A,]/4[G,,G,]/4[F,,F,]/4[E,,E,]/4[D,,D,]/4!ped-up! | %103
!ped! !wedge![C,,G,,C,]/z/4[E,G,CE]/4!>![E,G,CE]!ped-up!!ped! !wedge![_B,,,G,,_B,,]/z/4[_E,_G,B,_E]/4!>![E,G,B,E]!ped-up!!ped! !wedge![B,,,G,,B,,]/z/4[D,G,B,D]/4!>![D,G,B,D]!ped-up! | %104
!ped! !^![^C,E,A,^C]2 x!ped-up! x x2 | %105
!ped! !wedge![_B,,,F,,_B,,]/z/4[D,F,_B,D]/4!>![D,F,B,D]!ped-up!!ped! !wedge![A,,,F,,A,,]/z/4[^C,F,A,^C]/4!>![C,F,A,C]!ped-up!!ped! !wedge![_A,,,F,,_A,,]/z/4[C,F,_A,=C]/4!>![C,F,A,C]!ped-up! | %106
!ped! !^![B,,D,G,B,]2 x!ped-up! x x2 | %107
!ped! C,/z/4[E,G,C]/4[E,G,C]/[E,G,C]/!ped-up! C,/[A,C]/C,/[G,C]/ C,/[F,A,]/C,/[E,G,]/ | %108
!ped! C,/z/4[E,C]/4[E,C]/[E,C]/!ped-up!!ped! [E,C]/[E,C]/!ped-up! D,/[F,C]/!ped! E,/[G,C]/[E,G,C]/[G,C]/!ped-up! | %109
 !>![F,,A,,C,F,]!>![D,,F,,A,,D,]!ped! z/ [E,A,^C]/[E,A,C]/[E,A,C]/!ped-up!!ped! z/ [E,^G,B,]/[E,G,B,]/[E,G,B,]/!ped-up! | %110
[M:4/4]!ped! z/!<(! [A,,^C,E,]/[C,E,A,]/[E,A,^C]/ [A,CE]/[C,E,A,]/[E,A,C]/[A,CE]/!ped-up!!ped! [CEA]/[E,A,C]/[A,CE]/[CEA]/!<)![K:treble] [EA^c]/[Ace]/[cea]/[Ace]/4!ped-up! !fermata!z/4 | %111
[M:3/4][K:bass] !>![F,,A,,D,F,]!>![D,,F,,A,,D,]!ped! z/ [E,G,C]/[E,G,C]/[E,G,C]/!ped-up!!ped! z/ [D,F,G,B,]/[D,F,G,B,]/[D,F,G,B,]/!ped-up! | %112
[M:2/4] !wedge![C,,G,,C,] !wedge!C,!wedge!G,!wedge!E, | !>!C.B,/.A,/.G,/.F,/.E,/.D,/ | %114
 !wedge![C,,G,,C,] !wedge![C,E,]!wedge![G,C]!wedge![E,G,] | %115
 !>![CE].[B,D]/.[A,C]/.[G,B,]/.[F,A,]/.[E,G,]/.[D,F,]/ | %116
 !wedge![C,,G,,C,] !wedge![C,E,G,]!wedge![G,CE]!wedge![E,G,C] | !>![EG].F/.E/.D/.C/.B,/.A,/ | %118
 !>![CE].[B,D]/.[A,C]/.[G,B,]/.[F,A,]/.[E,G,]/.[D,F,]/ | %119
 !>![C,E,C].[B,,D,B,]/.[A,,C,A,]/.[G,,B,,G,]/.[F,,A,,F,]/.[E,,G,,E,]/.[D,,F,,D,]/ | %120
 !^![C,,E,,C,][D,,F,,D,]/[E,,G,,E,]/[F,,A,,F,]/[G,,B,,G,]/[A,,C,A,]/[B,,D,B,]/ | %121
[C,E,C]/[D,F,D]/[E,G,E]/[D,F,D]/[C,E,C]/[B,,D,B,]/[A,,C,A,]/[G,,B,,G,]/ | %122
 [F,,A,,F,]/[E,,G,,E,]/[D,,F,,D,]/[C,,E,,C,]/[D,,F,,D,]/[E,,G,,E,]/[F,,A,,F,]/[G,,B,,G,]/ | %123
[A,,C,A,]/[B,,D,B,]/[C,E,C]/[D,F,D]/[E,G,E]/[D,F,D]/[C,E,C]/[B,,D,B,]/ | %124
[A,,C,A,]/[G,,B,,G,]/[F,,A,,F,]/[E,,G,,E,]/(3[D,,F,,D,][C,,E,,C,][B,,,D,,B,,] | %125
[M:3/8] !wedge![_B,,,^C,,_B,,] !wedge![B,,^C,_B,] !wedge![B,^C_B] | [A,,,A,,]>[A,,,A,,][A,,,A,,] | %127
 !wedge![_A,,,_A,,] !wedge![A,,_A,] !wedge![A,_A] | [G,,,G,,]>[G,,,G,,][G,,,G,,] | %129
 !^![^F,,,^F,,][F,,,F,,]/[F,,,F,,]/[F,,,F,,]/[F,,,F,,]/ | !>![^F,,,^F,,]>[F,,,F,,][F,,,F,,] | %131
 [E,,,E,,]>[E,,,E,,][E,,,E,,] |[M:1/4] [E,,E,]>[D,,D,] | !wedge![C,,C,]2 | [A,,,A,,]>[G,,,G,,] | %135
 !wedge![F,,,F,,]2 | !wedge![G,,,G,,]2 | z2 | !wedge![G,,B,,D,G,]2 | z2 | %140
[M:3/4]!fff!!ped! [C,,E,,G,,C,]!arpeggio![E,G,C]!ped-up!!ped! [_A,,,_E,,_A,,]!arpeggio![C,_E,_A,C]!ped-up!!ped! [F,,,F,,]!arpeggio![C,F,=A,D]!ped-up! | %141
!ped! [C,,E,,G,,C,]!arpeggio![E,G,C]!ped-up!!ped! [_A,,,_E,,_A,,]!arpeggio![C,_E,_A,C]!ped-up!!ped! [F,,,F,,]!arpeggio![C,F,=A,D]!ped-up! | %142
!ped! [C,,E,,G,,C,]!arpeggio![E,G,C]!ped-up!!ped! [C,,E,,G,,C,]!arpeggio![E,G,CE]!ped-up!!ped! [C,,E,,G,,C,]!arpeggio![G,CEG]!ped-up! | %143
[K:treble]!fff!!ped! [CEGc][G,CEG][EGce][CEGc][Gceg][EGce] | %144
 [CEGc][G,CEG][K:bass][E,G,CE][C,E,G,C][G,,C,E,G,][E,,G,,C,E,]!ped-up! | %145
 !wedge![C,,E,,G,,C,]2 !wedge![C,,E,,G,,C,]2 !wedge![C,,E,,G,,C,]2 | %146
!8vb(!!ped! !>!!fermata![C,,,C,,]6!8vb)!!ped-up! |] %147
V:4
 x6 | x4 G,2 | F,2 F,2 x2 | x6 | E,,2 x2 x2 | E,,2 x2 x2 | E,,2 x4 | x8 | x6 | x6 | %10
[K:treble] _E2 E2 E2 | _D2 D2 x2 |[K:bass] x4 !arpeggio![F,,_B,,_D,]2 | %13
 [=E,,=E,]>[F,,F,] [G,,C,G,]2 z2 | [F,,F,]>[G,,G,] [_A,,C,_A,]2 x2 | %15
 [_A,,_A,]>[G,,G,] !>![F,,C,F,]2 x2 | x8 |!8vb(! x!8vb)! x5 | x6 | x6 | x6 | x6 | x6 | x6 | x6 | %25
 x6 | x6 | x ^F,, F,,2 F,,2 | x6 | x ^F,, F,,2 F,,2 | x6 | x6 | x2 ^E,2 ^C,2 | x6 | %34
 z ^F,, F,,2 F,,2 | x6 | x x z2 ^F,,2 | x6 | x6 | x6 | x6 | x6 | x6 | x6 | x4[K:treble] x2 | %45
[K:bass] x4[K:treble] x2 |[K:bass] x4[K:treble] x2 | x2[K:bass] x4 | x4[K:treble] x2 | %49
 x4[K:bass] x2 | x4[K:treble] x2 | x2[K:bass] x4 | x4[K:treble] x2 | x4[K:bass] x2 | %54
 x2/3[K:treble] x10/3[K:bass] x2 | x6 | x6 | x6 | [A,,,A,,]6 | x6 | [A,,,A,,]6 | [_A,,,_A,,]6 | %62
 [_A,,,_A,,]6 | x6 | x6 | x6 | [=A,,,=E,,]2 [^F,,,^C,,]2 [D,,^F,,]2 | %67
 !arpeggio!E,,,7/2 [E,,^F,,]/ [E,,^G,,] z | [=C,,E,,]2 [A,,,E,,]2 [F,,A,,]2 | %69
 [G,,,D,,]7/2 [G,,A,,]/ [G,,B,,] z | [E,,^G,,]2 [^C,,G,,]2 [A,,^C,]2 | %71
 [_A,,=C,]2 [=F,,C,]2 [_D,F,]2 | [=C,=E,]2 [A,,E,]2 !arpeggio![F,,A,,D,]2 | x6 | x241/40 | %75
 x2[K:treble] x4 | x6 |[K:bass] z !wedge![E,,E,] z !wedge![^G,,^G,] z !wedge![B,,B,] | %78
[K:treble] x3[K:bass] x3 | z !wedge![E,,E,] z !wedge![^G,,^G,] z !wedge![B,,B,] | %80
[K:treble] x3[K:bass] x3 | x23/30[K:treble] x5/4[K:bass] x3[K:treble] x | %82
[K:bass] x3/4[K:treble] x5/4[K:bass] x3[K:treble] x | %83
[K:bass] x2[K:treble] x[K:bass] x2[K:treble] x | x6 ||[M:3/4][K:bass] x6 | x6 | x6 | x6 | x6 | %90
 x6 || %91
 !arpeggio![C,,,E,,,G,,,C,,][K:treble] x[K:bass] !arpeggio![A,,,C,,E,,A,,][K:treble] x[K:bass] !arpeggio![F,,,A,,,D,,F,,][K:treble] x | %92
[K:bass] !arpeggio![G,,,B,,,D,,G,,][K:treble] x[K:bass] !arpeggio![G,,,C,,E,,G,,][K:treble] x[K:bass] !arpeggio![G,,,D,,B,,][K:treble] x | %93
[K:bass] !arpeggio![C,,E,,G,,C,][K:treble] x[K:bass] !arpeggio![A,,,C,,E,,A,,][K:treble] x[K:bass] !arpeggio![F,,,A,,,D,,F,,][K:treble] x | %94
[K:bass] !arpeggio![G,,,C,,E,,G,,][K:treble] x[K:bass] !arpeggio![G,,,D,,F,,B,,][K:treble] x[K:bass] !arpeggio![A,,,C,,E,,A,,][K:treble] x | %95
[K:bass] !arpeggio![F,,,A,,,D,,F,,][K:treble] x[K:bass] !arpeggio![G,,,C,,E,,G,,][K:treble] x[K:bass] !arpeggio![G,,,B,,,D,,F,,G,,][K:treble] x | %96
[K:bass] !arpeggio![C,,,E,,,G,,,C,,][K:treble] x x[K:bass] x x2 | %97
 !arpeggio!C,,[K:treble] x[K:bass] x4[K:treble][K:bass][K:treble] | %98
[K:bass] x3/4[K:treble] x5/4[K:bass] x3/4[K:treble] x5/4[K:bass] x3/4[K:treble] x5/4 | %99
[K:bass] x3/4[K:treble] x5/4[K:bass] x3/4[K:treble] x5/4[K:bass] x3/4[K:treble] x5/4 | %100
[K:bass] x3/4[K:treble] x5/4[K:bass] x3/4[K:treble] x5/4[K:bass] x3/4[K:treble] x5/4 | %101
[K:bass] x3/4[K:treble] x5/4[K:bass] x3/4[K:treble] x5/4[K:bass] x7/10[K:treble] x13/10 | %102
[K:bass] x3/4[K:treble] x5/4 x x/ x/[K:bass] x2 | x6 | %104
 z/ (3:4:6[A,,,A,,]/4[_B,,,_B,,]/4[=B,,,=B,,]/4[=C,,=C,]/4[^C,,^C,]/4[D,,D,]/4[^D,,^D,]/4[E,,E,]/4(3[F,,F,]/[^F,,^F,]/[G,,G,]/(17:8:14[^G,,^G,]/4[A,,A,]/4[_B,,_B,]/4[=B,,=B,]/4[=C,=C]/4[^C,^C]/4[=D,=D]/4[^D,^D]/4[E,E]/4[=F,=F]/4[^F,^F]/4[=G,=G]/4[^G,^G]/4[A,A] | %105
 x6 | %106
 z/ (3:4:6[G,,,G,,]/4[_A,,,_A,,]/4[=A,,,=A,,]/4[_B,,,_B,,]/4[=B,,,=B,,]/4[^C,,^C,]/4[D,,D,]/4[_E,,_E,]/4(3[=E,,=E,]/[F,,F,]/[^F,,^F,]/(16:8:13[G,,G,]/4[^G,,^G,]/4[=A,,=A,]/4[^A,,^A,]/4[B,,B,]/4[=C,C]/4[^C,^C]/4[D,D]/4[_E,_E]/4[=E,=E]/4[=F,=F]/4[^F,^F]/4[=G,=G] | %107
 [C,,G,,]2 [C,,A,,][C,,G,,] [C,,F,,][C,,E,,] | [C,,C,]3 [D,,D,] [E,,E,]2 | %109
 x2 !^![E,,A,,^C,E,]2 !^![E,,^G,,B,,E,]2 |[M:4/4] !^![A,,,^C,,E,,A,,]4 x4[K:treble] | %111
[M:3/4][K:bass] x2 !^![G,,,C,,E,,G,,]2 !^![G,,,B,,,D,,G,,]2 |[M:2/4] x4 | x4 | x4 | x4 | x4 | x4 | %118
 x4 | x4 | x4 | x4 | x4 | x4 | x4 |[M:3/8] x3 | x3 | x3 | x3 | x3 | x3 | x3 |[M:1/4] x2 | x2 | x2 | %135
 x2 | x2 | x2 | x2 | x2 |[M:3/4] x6 | x6 | x6 |[K:treble] x6 | x2[K:bass] x4 | x6 | %146
!8vb(! x6!8vb)! |] %147
V:5
 x6 | x6 |[K:bass] x6 | x6 | x6 | x6 | x6 | x8 | x3[K:treble] x!8va(! x!8va)! x | x6 | x6 | x6 | %12
 x6 | x6 | x6 | x6 | x8 | x4!8va(! x!8va)! x | x6 | x6 | x6 | x6 | x6 | x6 | x6 | x6 | x6 | x6 | %28
 x6 | x6 | x6 | x6 | x6 | x6 | x6 | x6 | x6 | x6 | x6 | x6 | x6 | x6 | x6 | x6 | x6 | x6 | x6 | %47
 x6 | x6 | x6 | x6 | x6 |!8va(! x6 | x6 | x4!8va)! x2 | x6 | x[K:bass] x5 |[K:treble] x6 | x6 | %59
 x _G2 x x2 | x6 | x6 | x6 | x6 | x6 | x6 | x6 | x6 | x6 | x6 | x6 | x6 | x6 | x3/4[K:bass] x5 | %74
[K:treble] x241/40 | x3/4[K:bass] x17/4[K:treble] x | x6 |!8va(! x6 | x!8va)! x5 |!8va(! x6 | %80
 x!8va)! x5 |[K:bass] x11/12[K:treble] x51/10 |[K:bass] x7/5[K:treble] x23/5 | x6 | x6 || %85
[M:3/4][K:bass] x6 | x6 | x6 | x6 | x6 | x6 || %91
 x[K:treble]!8va(! x[K:bass]!8va)! x[K:treble]!8va(! x[K:bass]!8va)! x[K:treble]!8va(! x!8va)! | %92
[K:bass] x[K:treble]!8va(! x[K:bass]!8va)! x[K:treble]!8va(! x[K:bass]!8va)! x[K:treble]!8va(! x!8va)! | %93
[K:bass] x[K:treble]!8va(! x[K:bass]!8va)! x[K:treble]!8va(! x[K:bass]!8va)! x[K:treble]!8va(! x!8va)! | %94
[K:bass] x[K:treble]!8va(! x[K:bass]!8va)! x[K:treble]!8va(! x[K:bass]!8va)! x[K:treble]!8va(! x!8va)! | %95
[K:bass] x[K:treble]!8va(! x[K:bass]!8va)! x[K:treble]!8va(! x[K:bass]!8va)! x[K:treble]!8va(! x!8va)! | %96
[K:bass] x[K:treble]!8va(! x!8va)! x4 | x!8va(! x!8va)! x!8va(! x!8va)! x!8va(! x!8va)! | %98
 x!8va(! x!8va)! x!8va(! x!8va)! x!8va(! x!8va)! | %99
 x!8va(! x!8va)! x!8va(! x!8va)! x!8va(! x!8va)! | %100
 x!8va(! x!8va)! x!8va(! x!8va)! x!8va(! x!8va)! | %101
[K:treble] x!8va(! x!8va)! x!8va(! x!8va)! x!8va(! x!8va)! | x!8va(! x!8va)! x3!8va(! x!8va)! | %103
!8va(! x/!8va)! x11/2 | x6 |!8va(! x/!8va)! x11/2 | x6 | x6 | x6 | x6 |[M:4/4] x8 |[M:3/4] x6 | %112
[M:2/4] x4 | x4 | x4 | x4 | x4 | x4 | x4 | x4 | x4 | x4 | x4 | x4 | x4 |[M:3/8]!8va(! x3 | x3 | %127
 x3 | x3!8va)! |[K:bass] x3 | x3 |[K:treble] x3 |[M:1/4] x2 | x2 | x2 | x2 | x2 | x2 | x2 | x2 | %140
[M:3/4] x4/3!8va(! x2/3!8va)! x4/3!8va(! x2/3!8va)! x4/3!8va(! x2/3!8va)! | %141
 x4/3!8va(! x2/3!8va)! x4/3!8va(! x2/3!8va)! x4/3!8va(! x2/3!8va)! | %142
 x4/3!8va(! x2/3!8va)! x4/3!8va(! x2/3!8va)! x4/3!8va(! x2/3 | x6 | x6 | x6!8va)! | %146
!8vb(! x6!8vb)! |] %147

